outputs/icons/navigation/full_screen_exit_round.svg

<svg xmlns="http://www.w3.org/2000/svg" width="1200" height="1200" fill="none"><g clip-path="url(#a)"><path fill="#000" d="M300 800h100v100c0 27.5 22.5 50 50 50s50-22.5 50-50V750c0-27.5-22.5-50-50-50H300c-27.5 0-50 22.5-50 50s22.5 50 50 50m100-400H300c-27.5 0-50 22.5-50 50s22.5 50 50 50h150c27.5 0 50-22.5 50-50V300c0-27.5-22.5-50-50-50s-50 22.5-50 50zm350 550c27.5 0 50-22.5 50-50V800h100c27.5 0 50-22.5 50-50s-22.5-50-50-50H750c-27.5 0-50 22.5-50 50v150c0 27.5 22.5 50 50 50m50-550V300c0-27.5-22.5-50-50-50s-50 22.5-50 50v150c0 27.5 22.5 50 50 50h150c27.5 0 50-22.5 50-50s-22.5-50-50-50z"/></g><defs><clipPath id="a"><path fill="#fff" d="M0 0h1200v1200H0z"/></clipPath></defs></svg>

<svg width="1200" height="1200" viewBox="0 0 1200 1200" fill="none" xmlns="http://www.w3.org/2000/svg"><g clip-path="url(#clip0_225_2891)"><path d="M300 800H400V900C400 927.5 422.5 950 450 950C477.5 950 500 927.5 500 900V750C500 722.5 477.5 700 450 700H300C272.5 700 250 722.5 250 750C250 777.5 272.5 800 300 800ZM400 400H300C272.5 400 250 422.5 250 450C250 477.5 272.5 500 300 500H450C477.5 500 500 477.5 500 450V300C500 272.5 477.5 250 450 250C422.5 250 400 272.5 400 300V400ZM750 950C777.5 950 800 927.5 800 900V800H900C927.5 800 950 777.5 950 750C950 722.5 927.5 700 900 700H750C722.5 700 700 722.5 700 750V900C700 927.5 722.5 950 750 950ZM800 400V300C800 272.5 777.5 250 750 250C722.5 250 700 272.5 700 300V450C700 477.5 722.5 500 750 500H900C927.5 500 950 477.5 950 450C950 422.5 927.5 400 900 400H800Z" fill="#1D1E23"/></g><defs><clipPath id="clip0_225_2891"><path width="24" fill="white" d="M0 0H1200V1200H0V0z"/></clipPath></defs></svg>
